public/img/decorations/deco-dots-2.svg

<svg width="150" height="111" viewBox="0 0 150 111" fill="none" xmlns="http://www.w3.org/2000/svg">
<path d="M61.1773 84.002C60.8203 86.363 60.4453 88.721 60.1093 91.085C59.4803 95.529 58.1233 99.779 56.6563 103.996C55.9393 106.057 54.6813 106.772 52.6743 106.402C50.5633 106.011 48.3833 103.041 48.7093 100.904C48.8423 100.045 49.1252 99.203 49.3912 98.369C50.2372 95.713 51.2503 93.098 51.9363 90.4C52.7583 87.164 53.2993 83.855 53.9893 80.584C54.1353 79.889 54.2333 79.098 54.6353 78.563C55.1723 77.852 55.6393 76.871 56.8283 76.969C58.0963 77.073 59.2622 77.495 59.7622 78.703C60.4562 80.379 61.2533 82.068 61.1773 84.002Z" fill="black"/>
<path d="M141.808 65.469C141.175 64.913 140.765 64.834 140.042 65.067C138.253 65.641 136.833 65.012 135.747 63.468C135.179 62.658 134.886 61.828 135.233 60.776C136.061 58.276 136.837 55.756 137.532 53.217C138.227 50.677 138.796 48.102 139.428 45.546C140.059 42.99 140.674 40.428 141.358 37.885C141.674 36.704 142.288 36.288 143.473 36.506C144.776 36.746 146.164 36.94 146.85 38.37C146.946 38.571 147.172 38.724 147.366 38.861C148.61 39.752 148.614 40.968 148.311 42.291C147.76 44.703 147.233 47.12 146.688 49.533C145.596 54.369 144.282 59.135 142.26 63.682C142.048 64.165 141.993 64.719 141.808 65.469Z" fill="black"/>
<path d="M115.315 90.3741C115.913 92.7851 115.352 94.8371 114.647 96.9001C113.272 100.917 111.692 104.839 109.624 108.553C109.317 109.103 108.948 109.617 108.591 110.175C106.163 109.987 103.794 110.057 102.091 107.882C100.829 106.268 100.732 105.089 101.609 103.144C103.279 99.4351 104.797 95.6561 106.359 91.8981C106.634 91.2361 106.804 90.5311 107.05 89.8551C107.698 88.0641 108.087 87.8451 109.868 88.2291C113.45 89.0001 113.45 89.0001 115.315 90.3741Z" fill="black"/>
<path d="M142.858 103.827C141.477 103.947 140.307 104.139 139.139 104.133C136.707 104.119 134.553 101.671 134.787 99.167C134.875 98.227 135.178 97.291 135.488 96.39C136.715 92.842 137.98 89.322 138.584 85.58C139.07 82.564 140.246 81.965 143.105 82.99C144.138 83.359 145.13 83.839 145.779 84.881C146.361 85.82 147.152 86.628 147.746 87.363C146.821 93.161 145.323 98.598 142.858 103.827ZM141.942 102.875C141.932 102.992 141.922 103.11 141.915 103.229C141.954 103.174 142.02 103.122 142.022 103.065C142.026 103.003 141.972 102.938 141.942 102.875Z" fill="black"/>
<path d="M82.239 99.639C80.661 99.499 79.382 99.506 78.159 99.248C76.194 98.835 74.6139 95.684 75.2569 93.631C75.6379 92.416 76.132 91.235 76.478 90.01C77.603 86.026 78.6749 82.027 79.7829 78.037C80.1249 76.814 80.488 75.696 81.828 75.017C83.947 73.945 85.935 74.667 86.64 76.881C87.38 79.204 86.994 81.491 86.452 83.718C85.761 86.566 85.4149 89.523 84.0849 92.195C84.3619 94.85 81.952 96.76 82.239 99.639Z" fill="black"/>
<path d="M110.825 71.084C110.555 71.113 110.263 71.056 110.096 71.176C108.407 72.391 106.922 71.778 105.551 70.641C104.139 69.471 103.174 68.05 103.572 66.075C104.027 63.813 104.529 61.559 104.945 59.29C105.431 56.628 105.998 53.965 106.242 51.276C106.459 48.915 107.537 48.219 109.752 48.966C110.957 49.372 112.176 49.621 113.098 50.646C114.399 52.096 114.852 53.55 114.545 55.615C113.945 59.646 113.09 63.603 112.07 67.533C111.774 68.676 111.292 69.773 110.825 71.084Z" fill="black"/>
<path d="M29.6628 97.127C29.0538 97.059 28.3948 96.811 27.8388 96.957C26.3758 97.34 25.4428 96.774 24.5518 95.678C23.5418 94.433 22.9468 93.131 23.2468 91.512C23.7858 88.616 24.2608 85.705 24.8858 82.826C25.5598 79.717 26.3548 76.634 27.1298 73.547C27.6918 71.305 29.4738 70.629 31.2548 72.123C33.0708 73.646 34.2628 75.403 33.6338 78.129C32.6028 82.608 31.9328 87.172 31.0868 91.695C30.9868 92.236 30.7098 92.742 30.5728 93.279C30.2668 94.49 29.9948 95.712 29.6628 97.127Z" fill="black"/>
<path d="M149.825 8.36506C147.995 13.5131 146.27 18.5731 144.389 23.5751C143.356 26.3271 139.018 27.3001 136.752 25.4291C135.752 24.6031 135.547 23.8961 135.982 22.7171C137.916 17.4741 139.841 12.2271 141.8 6.99309C142.124 6.12709 142.21 4.92908 143.333 4.73808C144.616 4.51908 145.851 4.97209 146.882 5.78209C147.503 6.27109 148.027 6.88406 148.611 7.42106C148.903 7.68806 149.235 7.91006 149.825 8.36506Z" fill="black"/>
<path d="M8.46604 24.099C6.98004 24.167 5.87605 24.327 4.79005 24.241C3.44005 24.134 2.48503 23.2819 1.70603 22.2009C1.01303 21.2379 1.21404 20.338 1.55604 19.281C2.63204 15.954 3.67105 12.609 4.52705 9.21996C5.01105 7.30096 5.12103 5.28497 5.36903 3.30797C5.56603 1.73297 6.36505 1.01995 7.87705 1.23995C9.52205 1.47895 10.8341 2.17097 11.5451 3.83697C12.2751 5.54897 12.867 7.21295 11.926 9.02395C11.854 9.16295 11.783 9.32796 11.789 9.47796C11.92 12.868 10.435 15.883 9.59605 19.049C9.15905 20.698 8.84704 22.379 8.46604 24.099Z" fill="black"/>
<path d="M82.2708 56.719C81.2398 56.858 80.3878 56.842 79.6298 57.104C78.3778 57.535 77.4538 57.124 76.6548 56.239C75.5398 54.999 74.9708 53.719 75.5828 51.912C77.1898 47.153 78.2628 42.255 78.8328 37.254C78.9128 36.544 79.0598 35.837 79.2408 35.145C79.5548 33.938 80.3068 33.456 81.5198 33.613C84.2448 33.964 86.1588 36.695 85.6648 39.43C84.9848 43.186 84.4028 46.961 83.6938 50.711C83.3128 52.72 82.7548 54.697 82.2708 56.719Z" fill="black"/>
<path d="M7.60279 107.088C6.34679 107.162 5.5558 106.785 5.0908 105.654C4.7368 104.791 4.07078 104.043 3.48578 103.289C2.33178 101.804 2.2648 100.262 3.0308 98.581C3.9218 96.625 4.7768 94.65 5.5698 92.652C6.1228 91.256 6.55579 89.811 7.01679 88.381C7.16279 87.928 7.21379 87.445 7.33079 86.983C7.77379 85.249 8.5338 84.391 9.6648 84.329C11.0538 84.252 12.7608 85.518 13.1258 87.064C14.2548 91.847 13.6008 96.364 10.9808 100.569C10.7078 101.01 10.6388 101.577 10.4648 102.083C10.3668 102.374 10.2908 102.685 10.1348 102.944C9.2958 104.346 8.43279 105.734 7.60279 107.088Z" fill="black"/>
<path d="M28.5579 35.457C30.9369 34.317 32.9469 34.942 34.0289 37.084C35.3839 39.766 35.5128 39.787 34.9938 42.934C34.3318 46.944 33.4429 50.917 32.6289 54.901C32.5509 55.274 32.3929 55.758 32.1109 55.938C31.2519 56.488 31.2479 57.364 31.1849 58.204C30.3689 58.147 29.6769 58.067 28.9859 58.058C27.4879 58.035 26.9178 57.601 26.3258 56.222C25.7848 54.956 26.0559 53.706 26.2299 52.451C26.8589 47.95 27.5149 43.453 28.1459 38.952C28.3119 37.771 28.4269 36.584 28.5579 35.457Z" fill="black"/>
<path d="M114.899 7.67801C113.784 12.809 112.727 17.677 111.684 22.47C110.725 22.741 109.776 22.97 108.852 23.278C107.248 23.811 106.096 22.954 104.993 22.04C104.011 21.226 103.429 20.16 103.905 18.864C105.426 14.721 105.913 10.354 106.768 6.06601C107.282 3.49601 107.768 3.198 110.321 3.698C112.063 4.039 113.311 5.07299 114.233 6.54599C114.522 7.00999 114.79 7.49101 114.899 7.67801Z" fill="black"/>
<path d="M54.4378 63.111C53.8558 63.111 53.3908 63.082 52.9298 63.117C49.9998 63.332 47.9808 61.1211 48.4528 58.1871C48.5148 57.7961 48.6698 57.419 48.7868 57.039C50.0528 52.908 51.0058 48.708 51.5898 44.426C51.6538 43.951 51.7228 43.476 51.8188 43.007C52.2078 41.115 52.7228 40.877 54.6258 41.046C56.7628 41.235 58.8118 44.015 58.4168 46.016C57.8778 48.756 57.5338 51.539 56.8988 54.255C56.2818 56.886 55.3968 59.454 54.6388 62.052C54.5538 62.35 54.5218 62.664 54.4378 63.111Z" fill="black"/>
<path d="M10.5169 53.2879C9.29995 54.7029 8.38996 56.2669 8.22996 58.1709C8.15596 59.0409 7.72395 59.455 6.85295 59.479C6.05795 59.499 5.26693 59.6 4.47193 59.613C2.04793 59.651 0.125963 57.2889 0.725963 54.9639C0.944963 54.1209 1.32995 53.318 1.65995 52.506C2.76695 49.77 3.86696 47.03 5.00996 44.308C5.41996 43.331 5.40295 41.9199 6.85395 41.7969C8.41595 41.6639 9.98294 41.9969 10.9729 43.2909C11.7849 44.3529 12.338 45.6309 12.889 46.8649C13.057 47.2389 12.953 47.838 12.772 48.243C12.129 49.681 11.3949 51.0779 10.7099 52.4979C10.5909 52.7479 10.552 53.035 10.476 53.306L10.5169 53.2879Z" fill="black"/>
<path d="M60.8919 3.11896C60.4209 5.22596 59.9579 7.35097 59.4699 9.46997C58.7239 12.711 57.9759 15.951 57.1989 19.185C56.9939 20.04 56.7789 20.898 55.4759 20.508C55.0439 20.379 54.4719 20.83 53.9509 20.873C51.8319 21.05 50.2629 19.777 50.0659 17.679C49.9999 16.985 50.0699 16.242 50.2479 15.566C51.1369 12.181 52.1169 8.81997 52.9899 5.43197C53.3609 3.99097 54.2009 2.86196 55.0969 1.75696C55.9509 0.704955 57.1149 0.492976 58.2729 1.20398C59.1419 1.73598 59.9289 2.40596 60.8919 3.11896Z" fill="black"/>
<path d="M32.0622 18.568C30.9982 18.568 30.2012 18.489 29.4252 18.588C28.4212 18.716 27.7572 18.316 27.1692 17.562C25.9522 16 25.5932 14.433 26.3802 12.469C27.7162 9.13599 28.8492 5.719 29.9722 2.307C30.3532 1.153 30.8742 0.0879904 32.0952 0.0119904C33.3492 -0.0660096 34.5422 0.375987 35.4132 1.53299C36.7902 3.36299 37.4272 5.18201 36.5052 7.47101C35.2842 10.5 34.2822 13.616 33.1362 16.677C32.8902 17.338 32.4372 17.921 32.0622 18.568Z" fill="black"/>
<path d="M82.4332 24.1381C81.4762 24.2461 80.5192 24.2991 79.5852 24.4711C77.0972 24.9311 75.0562 22.8111 75.6652 20.3251C75.7962 19.7881 76.0792 19.2901 76.2762 18.7681C77.4302 15.7121 78.5902 12.6581 79.7292 9.59706C80.5002 7.52106 80.9012 7.28206 83.1162 7.73506C83.8932 7.89406 84.6692 8.07806 85.4362 8.27906C85.7392 8.35806 86.0221 8.51406 86.2741 8.61906C87.0711 10.1071 86.9302 11.5381 86.4112 13.0101C85.6412 15.1821 84.8782 17.3591 84.2122 19.5631C83.7592 21.0621 83.7022 22.6941 82.4332 24.1381Z" fill="black"/>
</svg>

<svg width="150" height="111" fill="none" xmlns="http://www.w3.org/2000/svg"><path d="M61.177 84.002c-.357 2.361-.732 4.719-1.068 7.083-.629 4.444-1.986 8.694-3.453 12.911-.717 2.061-1.975 2.776-3.982 2.406-2.11-.391-4.29-3.361-3.965-5.498.133-.859.416-1.701.682-2.535.846-2.656 1.86-5.271 2.545-7.969.822-3.236 1.363-6.545 2.053-9.816.146-.695.244-1.486.646-2.021.537-.711 1.004-1.692 2.193-1.594 1.268.104 2.434.526 2.934 1.734.694 1.676 1.491 3.365 1.415 5.299zm80.631-18.533c-.633-.556-1.043-.635-1.766-.402-1.789.574-3.209-.055-4.295-1.599-.568-.81-.861-1.64-.514-2.692.828-2.5 1.604-5.02 2.299-7.559.695-2.54 1.264-5.115 1.896-7.671.631-2.556 1.246-5.118 1.93-7.661.316-1.181.93-1.597 2.115-1.379 1.303.24 2.691.434 3.377 1.864.096.201.322.354.516.491 1.244.891 1.248 2.107.945 3.43-.551 2.412-1.078 4.829-1.623 7.242-1.092 4.836-2.406 9.602-4.428 14.149-.212.483-.267 1.037-.452 1.787zm-26.493 24.905c.598 2.411.037 4.463-.668 6.526-1.375 4.017-2.955 7.939-5.023 11.653-.307.55-.676 1.064-1.033 1.622-2.428-.188-4.797-.118-6.5-2.293-1.262-1.614-1.359-2.793-.482-4.738 1.67-3.709 3.188-7.488 4.75-11.246.275-.662.445-1.367.691-2.043.648-1.79 1.037-2.01 2.818-1.626 3.582.771 3.582.771 5.447 2.145zm27.543 13.453c-1.381.12-2.551.312-3.719.306-2.432-.014-4.586-2.462-4.352-4.966.088-.94.391-1.876.701-2.777 1.227-3.548 2.492-7.068 3.096-10.81.486-3.016 1.662-3.615 4.521-2.59 1.033.369 2.025.849 2.674 1.891.582.939 1.373 1.747 1.967 2.482-.925 5.798-2.423 11.235-4.888 16.464zm-.916-.952c-.01.117-.02.235-.027.354.039-.055.105-.107.107-.164.004-.062-.05-.127-.08-.19zm-59.703-3.236c-1.578-.14-2.857-.133-4.08-.391-1.965-.413-3.545-3.564-2.902-5.617.38-1.215.875-2.396 1.221-3.621 1.125-3.984 2.197-7.983 3.305-11.973.342-1.223.705-2.341 2.045-3.02 2.119-1.072 4.107-.35 4.812 1.864.74 2.323.354 4.61-.188 6.837-.691 2.848-1.037 5.805-2.367 8.477.277 2.655-2.133 4.565-1.846 7.444zm28.586-28.555c-.27.029-.562-.028-.729.092-1.689 1.215-3.174.602-4.545-.535-1.412-1.17-2.377-2.591-1.979-4.566.455-2.262.957-4.516 1.373-6.785.486-2.662 1.053-5.325 1.297-8.014.217-2.361 1.295-3.057 3.51-2.31 1.205.406 2.424.655 3.346 1.68 1.301 1.45 1.754 2.904 1.447 4.969-.6 4.031-1.455 7.988-2.475 11.918-.296 1.143-.778 2.24-1.245 3.551zM29.663 97.127c-.61-.068-1.268-.316-1.824-.17-1.463.383-2.396-.183-3.287-1.279-1.01-1.245-1.605-2.547-1.305-4.166.539-2.896 1.014-5.807 1.639-8.686.674-3.109 1.469-6.192 2.244-9.279.562-2.242 2.344-2.918 4.125-1.424 1.816 1.523 3.008 3.28 2.379 6.006-1.031 4.479-1.701 9.043-2.547 13.566-.1.541-.377 1.047-.514 1.584-.306 1.211-.578 2.433-.91 3.848zM149.825 8.365c-1.83 5.148-3.555 10.208-5.436 15.21-1.033 2.752-5.371 3.725-7.637 1.854-1-.826-1.205-1.533-.77-2.712 1.934-5.243 3.859-10.49 5.818-15.724.324-.866.41-2.064 1.533-2.255 1.283-.219 2.518.234 3.549 1.044.621.49 1.145 1.102 1.729 1.64.292.266.624.488 1.214.943zM8.466 24.099c-1.486.068-2.59.228-3.676.142-1.35-.107-2.305-.96-3.084-2.04-.693-.963-.492-1.863-.15-2.92 1.076-3.327 2.115-6.672 2.971-10.061.484-1.919.594-3.935.842-5.912.197-1.575.996-2.288 2.508-2.068 1.645.239 2.957.931 3.668 2.597.73 1.712 1.322 3.376.381 5.187-.072.139-.143.304-.137.454.131 3.39-1.354 6.405-2.193 9.571-.437 1.649-.749 3.33-1.13 5.05zm73.804 32.62c-1.03.139-1.882.123-2.64.385-1.252.431-2.176.02-2.975-.865-1.115-1.24-1.684-2.52-1.072-4.327a70.767 70.767 0 003.25-14.658c.08-.71.227-1.417.408-2.109.314-1.207 1.066-1.689 2.279-1.532 2.725.351 4.639 3.082 4.145 5.817-.68 3.756-1.262 7.531-1.971 11.281-.381 2.009-.94 3.986-1.423 6.008zM7.603 107.088c-1.256.074-2.047-.303-2.512-1.434-.354-.863-1.02-1.611-1.605-2.365-1.154-1.485-1.221-3.027-.455-4.708a130.075 130.075 0 002.539-5.929c.553-1.396.986-2.841 1.447-4.271.146-.453.197-.936.314-1.398.443-1.734 1.203-2.592 2.334-2.654 1.389-.077 3.096 1.189 3.46 2.735 1.13 4.783.476 9.3-2.144 13.505-.273.441-.342 1.008-.516 1.514-.098.291-.174.602-.33.861-.84 1.402-1.702 2.79-2.532 4.144zm20.955-71.631c2.379-1.14 4.389-.515 5.47 1.627 1.356 2.682 1.485 2.703.966 5.85-.662 4.01-1.551 7.983-2.365 11.967-.078.373-.236.857-.518 1.037-.86.55-.863 1.426-.926 2.266-.816-.057-1.508-.137-2.2-.146-1.497-.023-2.067-.457-2.66-1.836-.54-1.266-.27-2.516-.095-3.771.629-4.501 1.285-8.998 1.916-13.499.166-1.181.28-2.368.412-3.495zm86.341-27.779c-1.115 5.131-2.172 9.999-3.215 14.792-.959.271-1.908.5-2.832.808-1.604.533-2.756-.324-3.859-1.238-.982-.814-1.564-1.88-1.088-3.176 1.521-4.143 2.008-8.51 2.863-12.798.514-2.57 1-2.868 3.553-2.368 1.742.341 2.99 1.375 3.912 2.848.289.464.557.945.666 1.132zM54.438 63.111c-.582 0-1.047-.029-1.508.006-2.93.215-4.95-1.996-4.477-4.93.062-.39.217-.768.334-1.148 1.266-4.131 2.219-8.331 2.803-12.613.064-.475.133-.95.229-1.419.389-1.892.904-2.13 2.807-1.961 2.137.189 4.186 2.969 3.79 4.97-.538 2.74-.882 5.523-1.517 8.239-.617 2.631-1.502 5.199-2.26 7.797-.085.298-.117.612-.201 1.059zm-43.921-9.823C9.3 54.703 8.39 56.267 8.23 58.17c-.074.87-.506 1.284-1.377 1.308-.795.02-1.586.121-2.381.134-2.424.038-4.346-2.324-3.746-4.65.219-.842.604-1.645.934-2.457 1.107-2.736 2.207-5.476 3.35-8.198.41-.977.393-2.388 1.844-2.511 1.562-.133 3.129.2 4.119 1.494.812 1.062 1.365 2.34 1.916 3.574.168.374.064.973-.117 1.378-.643 1.438-1.377 2.835-2.062 4.255-.12.25-.158.537-.234.808l.04-.018zM60.892 3.119c-.471 2.107-.934 4.232-1.422 6.351a1043.84 1043.84 0 01-2.271 9.715c-.205.855-.42 1.713-1.723 1.323-.432-.129-1.004.322-1.525.365-2.12.177-3.688-1.096-3.885-3.194a6.174 6.174 0 01.182-2.113c.889-3.385 1.869-6.746 2.742-10.134.37-1.441 1.21-2.57 2.107-3.675.854-1.052 2.018-1.264 3.176-.553.869.532 1.656 1.202 2.619 1.915zm-28.83 15.449c-1.064 0-1.86-.079-2.637.02-1.004.128-1.668-.272-2.256-1.026-1.217-1.562-1.576-3.129-.789-5.093 1.336-3.333 2.47-6.75 3.592-10.162.381-1.154.902-2.219 2.123-2.295 1.254-.078 2.447.364 3.318 1.521 1.377 1.83 2.014 3.649 1.092 5.938-1.22 3.029-2.223 6.145-3.369 9.206-.246.661-.699 1.244-1.074 1.891zm50.371 5.57c-.957.108-1.914.161-2.848.333-2.488.46-4.529-1.66-3.92-4.146.131-.537.414-1.035.611-1.557 1.154-3.056 2.314-6.11 3.453-9.17.771-2.077 1.172-2.316 3.387-1.863.777.16 1.553.343 2.32.544.303.08.586.235.838.34.797 1.488.656 2.92.137 4.391-.77 2.172-1.533 4.35-2.199 6.553-.453 1.5-.51 3.131-1.779 4.575z" fill="#000"/></svg>
